Papirus-nordic/64x64/places/folder-nordic-pictures-open.svg

<svg xmlns="http://www.w3.org/2000/svg" width="64" height="64"><rect width="50" height="32" x="7" y="24" rx="2.5" ry="2.5" opacity=".2"/><path d="M7 44.5C7 45.885 8.115 47 9.5 47h45c1.385 0 2.5-1.115 2.5-2.5v-27c0-1.385-1.115-2.5-2.5-2.5H29v-2.5c0-1.385-1.115-2.5-2.5-2.5h-17A2.495 2.495 0 0 0 7 12.5" fill="#6c9b9a"/><rect width="50" height="28" x="7" y="26" rx="2.5" ry="2.5" opacity=".2"/><rect width="44" height="20" x="10" y="18" rx="2.5" ry="2.5" fill="#e4e4e4"/><rect width="50" height="28" x="7" y="27" rx="2.5" ry="2.5" fill="#82abaa"/><path d="M9.5 10A2.495 2.495 0 0 0 7 12.5v1C7 12.115 8.115 11 9.5 11h17c1.385 0 2.5 1.115 2.5 2.5v-1c0-1.385-1.115-2.5-2.5-2.5zM29 15v1h25.5c1.39 0 2.5 1.115 2.5 2.5v-1c0-1.385-1.11-2.5-2.5-2.5z" opacity=".1" fill="#fff"/><path d="M23.4 33c-.775 0-1.4.625-1.4 1.4v13.2c0 .775.625 1.4 1.4 1.4h17.2c.775 0 1.4-.625 1.4-1.4V34.4c0-.775-.625-1.4-1.4-1.4zm4.6 6l6 6 3-4 3 4v2H24v-4z" fill="#4e6766"/></svg>

<svg xmlns="http://www.w3.org/2000/svg" width="64" height="64" version="1.1">
 <rect style="opacity:0.2" width="50" height="32" x="7" y="24" rx="2.5" ry="2.5"/>
 <path style="fill:#6c9b9a" d="M 7,44.5 C 7,45.885 8.115,47 9.5,47 H 54.5 C 55.885,47 57,45.885 57,44.5 V 17.5 C 57,16.115 55.885,15 54.5,15 H 29 V 12.5 C 29,11.115 27.885,10 26.5,10 H 9.5 C 8.115,10 7,11.115 7,12.5"/>
 <rect style="opacity:0.2" width="50" height="28" x="7" y="26" rx="2.5" ry="2.5"/>
 <rect style="fill:#e4e4e4" width="44" height="20" x="10" y="18" rx="2.5" ry="2.5"/>
 <rect style="fill:#82abaa" width="50" height="28" x="7" y="27" rx="2.5" ry="2.5"/>
 <path style="opacity:0.1;fill:#ffffff" d="M 9.5,10 C 8.115,10 7,11.115 7,12.5 V 13.5 C 7,12.115 8.115,11 9.5,11 H 26.5 C 27.885,11 29,12.115 29,13.5 V 12.5 C 29,11.115 27.885,10 26.5,10 Z M 29,15 V 16 H 54.5 C 55.89,16 57,17.115 57,18.5 V 17.5 C 57,16.115 55.89,15 54.5,15 Z"/>
 <path style="fill:#4e6766" d="M 23.4,33 C 22.625,33 22,33.625 22,34.4 V 47.6 C 22,48.375 22.625,49 23.4,49 H 40.6 C 41.375,49 42,48.375 42,47.6 V 34.4 C 42,33.625 41.375,33 40.6,33 Z M 28,39 34,45 37,41 40,45 V 47 H 24 V 43 Z"/>
</svg>
